X: 511
T: Jiefu huan xiaoyi
L: 1/8
M: 2/4
K: F
c f d c [I:setbarnb 1]| 
f dc2 | 
f A c G | 
F4 | 
c c d f | 
c F G A | 
G D F G | 
C4 |]

@@@ Tune index: 9385
